X:29
T:Duet
S:John Moore's Book 1
Z:Transcribed by Paul Barber-Riley  April 2016
M:2/4
L:1/8
K:D
%%VWML: Moore1-4493-p18-0
F:http://www.vwml.org/record/Moore1/4493/p18
V:1
d2d2|fddA|f2f2|affd|aaab|ggga|fagf|{f2}e4:|
e2e2|fde2|fff2|aff2|aaab|ggga|f2~e2|d4:|
V:2
z4|z4|d2d2|fddA|fffg|eeef|dfed|A4:|
A2A2|dFA2|ddd2|fdd2|fffg|eeef|d2A2|F4:|

